polaris-icons/icons/newicons/MonerisMajor.svg

<svg width="20" height="20" viewBox="0 0 20 20" fill="none" xmlns="http://www.w3.org/2000/svg">
<path fill-rule="evenodd" clip-rule="evenodd" d="M6.5 5.5C6.5 4.94772 6.94772 4.5 7.5 4.5H12.5C13.0523 4.5 13.5 4.94772 13.5 5.5V8.5C13.5 9.05228 13.0523 9.5 12.5 9.5H7.5C6.94772 9.5 6.5 9.05228 6.5 8.5V5.5ZM8 8V6H12V8H8Z" fill="black"/>
<path d="M6.5 11.5C6.5 11.0858 6.83579 10.75 7.25 10.75H8.75C9.16421 10.75 9.5 11.0858 9.5 11.5C9.5 11.9142 9.16421 12.25 8.75 12.25H7.25C6.83579 12.25 6.5 11.9142 6.5 11.5Z" fill="black"/>
<path d="M11.25 10.75C10.8358 10.75 10.5 11.0858 10.5 11.5C10.5 11.9142 10.8358 12.25 11.25 12.25H12.75C13.1642 12.25 13.5 11.9142 13.5 11.5C13.5 11.0858 13.1642 10.75 12.75 10.75H11.25Z" fill="black"/>
<path d="M6.5 14.25C6.5 13.8358 6.83579 13.5 7.25 13.5H8.75C9.16421 13.5 9.5 13.8358 9.5 14.25C9.5 14.6642 9.16421 15 8.75 15H7.25C6.83579 15 6.5 14.6642 6.5 14.25Z" fill="black"/>
<path d="M11.25 13.5C10.8358 13.5 10.5 13.8358 10.5 14.25C10.5 14.6642 10.8358 15 11.25 15H12.75C13.1642 15 13.5 14.6642 13.5 14.25C13.5 13.8358 13.1642 13.5 12.75 13.5H11.25Z" fill="black"/>
<path fill-rule="evenodd" clip-rule="evenodd" d="M4 5C4 3.34315 5.34315 2 7 2H13C14.6569 2 16 3.34315 16 5V15C16 16.6569 14.6569 18 13 18H7C5.34315 18 4 16.6569 4 15V5ZM7 3.5H13C13.8284 3.5 14.5 4.17157 14.5 5V15C14.5 15.8284 13.8284 16.5 13 16.5H7C6.17157 16.5 5.5 15.8284 5.5 15V5C5.5 4.17157 6.17157 3.5 7 3.5Z" fill="black"/>
</svg>

<svg viewBox="0 0 20 20" fill="none" xmlns="http://www.w3.org/2000/svg"><path fill-rule="evenodd" clip-rule="evenodd" d="M6.5 5.5a1 1 0 0 1 1-1h5a1 1 0 0 1 1 1v3a1 1 0 0 1-1 1h-5a1 1 0 0 1-1-1v-3Zm1.5 2.5v-2h4v2h-4Z" fill="#5C5F62"/><path d="M6.5 11.5a.75.75 0 0 1 .75-.75h1.5a.75.75 0 0 1 0 1.5h-1.5a.75.75 0 0 1-.75-.75Z" fill="#5C5F62"/><path d="M11.25 10.75a.75.75 0 0 0 0 1.5h1.5a.75.75 0 0 0 0-1.5h-1.5Z" fill="#5C5F62"/><path d="M6.5 14.25a.75.75 0 0 1 .75-.75h1.5a.75.75 0 0 1 0 1.5h-1.5a.75.75 0 0 1-.75-.75Z" fill="#5C5F62"/><path d="M11.25 13.5a.75.75 0 0 0 0 1.5h1.5a.75.75 0 0 0 0-1.5h-1.5Z" fill="#5C5F62"/><path fill-rule="evenodd" clip-rule="evenodd" d="M4 5a3 3 0 0 1 3-3h6a3 3 0 0 1 3 3v10a3 3 0 0 1-3 3h-6a3 3 0 0 1-3-3v-10Zm3-1.5h6a1.5 1.5 0 0 1 1.5 1.5v10a1.5 1.5 0 0 1-1.5 1.5h-6a1.5 1.5 0 0 1-1.5-1.5v-10a1.5 1.5 0 0 1 1.5-1.5Z" fill="#5C5F62"/></svg>
